X:1
T:Title
%%score ( 1 2 ) { ( 3 5 ) | 4 }
L:1/8
Q:1/4=120
M:3/4
K:Bb
V:1 treble nm="Church Organ, Unnamed-000"
V:2 treble 
V:3 bass nm="Church Organ, Unnamed-001"
V:5 bass 
V:4 bass 
V:1
 [CF]2 D4 | [DF]2 [DB]4 | [Fd]2 [Ec]2 [DB]2 | [CA]2 [DB]4 | [Fd]2 [Fc]4 | F2 [DG]2 [CF]2 | %6
w: By~William~Croft~(1678\-1727) *||||||
 [C=E]2 [CF]4 | [Fc]2 [FA]4 | F2 [FB]4 | [Fd]2 d2 c2 | B2 B2 z2 | [CF]2 [FB]4 | [Fd]2 [Ec]2 [DB]2 | %13
w: |||||||
 [CA]2 [DB]4 | [CD]2 [B,D]4 | z2 G2 z2 | [B,G]2 [EA]2 [DG]2 | [D^F]2 [DG]4 | [^FA]2 [GB]4 | %19
w: ||||||
 AG [DF]4 | [_D=E]2 =D4 | z2 F4 | [FB]2 [EG]4 | [FG]2 c2- [Fc]2 | [GB]2 B2 A2 | F2 B2- [EB]2 | %26
w: |||||||
 [Dd]2 [Gc]2 [FB]2 | [FA]2 [FB]4- | [FB]2 z2 z2 |] %29
w: |||
V:2
 x6 | x6 | x6 | x6 | x6 | x6 | x6 | x6 | x6 | z2 G4 | DE F2- [FA]2 | x6 | x6 | x6 | x6 | %15
 [DG]2 D2- [D^F]2 | x6 | x6 | x6 | x6 | x6 | [EF]2 D2 E2 | x6 | z2 =E2 z2 | z2 F4 | z2 F2 z2 | x6 | %27
 x6 | x6 |] %29
V:3
 F,2 B,4 | A,2 B,4 | B,2 G,2 F,2 | F,2 F,4 | B,2 C4 | A,2 B,2 A,2 | G,2 A,4 | A,2 C4 | C2 B,4 | %9
 B,2 B,2 C2 | G,2 C4 | A,2 B,4 | B,2 G,2 F,2 | F,2 F,4 | ^F,2 G,4 | G,2 B,2 A,2 | G,2 C2 B,2 | %17
 A,2 B,4 | D2 D2 _D2 | D2 z2 z2 | G,2 F,4 | A,2 B,4 | B,2 B,4 | =B,2[K:treble] C4 | C2 C4 | %25
 A,2 B,4 | F2 E2 D2 | C2 D4- | D2 z2 z2 |] %29
V:4
 A,,2 B,,4 | D,2 G,4 | D,2 E,2 z2 | F,,2 B,,4 | B,,2 A,,4 | D,2 B,,2 C,2 | C,2 F,4 | F,2 F,4 | %8
 E,2 D,4 | B,,2 E,4 | z2 F,4 | E,2 D,4 | B,,2 E,2 z2 | z2 B,,4 | A,,2 G,,4 | B,,2 D,4 | %16
 E,2 C,2 D,2 | D,2 G,4 | D,2 G,2 F,2 | F,G, z2 z2 | A,,2 D,4 | C,2 B,,2 C,2 | D,2 E,4 | %23
 D,2 C,2 D,2 | =E,2 F,4 | E,2 D,2 C,2 | B,,2 E,2 F,2 | F,,2 B,,4- | B,,2 z2 z2 |] %29
V:5
 x6 | x6 | x6 | x6 | x6 | x6 | x6 | x6 | x6 | x6 | x6 | x6 | x6 | x6 | x6 | x6 | x6 | x6 | x6 | %19
 z B, A,4 | x6 | x6 | x6 | x2[K:treble] x4 | x6 | x6 | x6 | x6 | x6 |] %29

